assets/edit.svg

<svg xmlns="http://www.w3.org/2000/svg" fill="none" viewBox="0 0 22 22">
  <path stroke="#2A2238" stroke-width="1.5" d="M15.5001 2.50431S2.00005 12.5043 1.50005 13.0043s0 4 0 4 3.3644.3178 4 0c.63561-.3178 13.00005-9.49999 13.00005-9.49999m-3-5s1.6636-1.33117 2-1.49999c.3363-.168827 3.1636 4.66879 3 4.99998-.1637.3312-2 1.50001-2 1.50001m-3-5 1.5 2.5 1.5 2.5"/>
  <path fill="#2A2238" d="M1 19.0043h20v2H1z"/>
</svg>

<svg width="22" height="22" viewBox="0 0 22 22" fill="none" xmlns="http://www.w3.org/2000/svg">
<path d="M15.5001 2.50431C15.5001 2.50431 2.00005 12.5043 1.50005 13.0043C1.00005 13.5043 1.50005 17.0043 1.50005 17.0043C1.50005 17.0043 4.86445 17.3221 5.50005 17.0043C6.13566 16.6865 18.5001 7.50431 18.5001 7.50431M15.5001 2.50431C15.5001 2.50431 17.1637 1.17314 17.5001 1.00432C17.8364 0.835493 20.6637 5.67311 20.5001 6.0043C20.3364 6.3355 18.5001 7.50431 18.5001 7.50431M15.5001 2.50431L17.0001 5.00431L18.5001 7.50431" stroke="#2A2238" stroke-width="1.5"/>
<rect x="1" y="19.0043" width="20" height="2" fill="#2A2238"/>
</svg>
